svg/LeftHanded/pointer.svg

<?xml version="1.0" encoding="UTF-8" standalone="no"?>
<!-- Created with Inkscape (http://www.inkscape.org/) -->

<svg
   xmlns:dc="http://purl.org/dc/elements/1.1/"
   xmlns:cc="http://creativecommons.org/ns#"
   xmlns:rdf="http://www.w3.org/1999/02/22-rdf-syntax-ns#"
   xmlns:svg="http://www.w3.org/2000/svg"
   xmlns="http://www.w3.org/2000/svg"
   xmlns:xlink="http://www.w3.org/1999/xlink"
   version="1.0"
   width="500"
   height="500"
   viewBox="0 0 1000 1000"
   id="page"
   xml:space="preserve"><metadata
     id="metadata14"><rdf:RDF><cc:Work
         rdf:about=""><dc:format>image/svg+xml</dc:format><dc:type
           rdf:resource="http://purl.org/dc/dcmitype/StillImage" /><dc:title></dc:title></cc:Work></rdf:RDF></metadata><defs
     id="defs38"><linearGradient
       id="linearGradient1307"><stop
         id="stop1309"
         style="stop-color:#999999;stop-opacity:1"
         offset="0" /><stop
         id="stop1311"
         style="stop-color:#555555;stop-opacity:1"
         offset="1" /></linearGradient><linearGradient
       x1="252.50525"
       y1="118.78046"
       x2="252.50525"
       y2="730.68188"
       id="linearGradient1313"
       xlink:href="#linearGradient1307"
       gradientUnits="userSpaceOnUse"
       gradientTransform="translate(-6.708428e-6,0)" /><linearGradient
       x1="252.50525"
       y1="118.78046"
       x2="252.50525"
       y2="730.68188"
       id="linearGradient1313-3"
       xlink:href="#linearGradient1307-6"
       gradientUnits="userSpaceOnUse"
       gradientTransform="translate(-6.708428e-6,0)" /><linearGradient
       id="linearGradient1307-6"><stop
         id="stop1309-4"
         style="stop-color:#999999;stop-opacity:1"
         offset="0" /><stop
         id="stop1311-1"
         style="stop-color:#555555;stop-opacity:1"
         offset="1" /></linearGradient><filter
       x="-0.26953629"
       y="-0.2162977"
       width="1.5390726"
       height="1.4325954"
       color-interpolation-filters="sRGB"
       id="filter3793"><feGaussianBlur
         id="feGaussianBlur3795"
         stdDeviation="53.344547" /></filter></defs><path
     d="m 1187.3614,749.79702 c 13.42,-21.415 30.825,-89.003 37.103,-113.409 13.976,-54.33299 36.708,-138.256 13.849,-193.056 -7.564,-18.136 -28.484,-32.794 -48.536,-28.094 -59.461,13.938 -62.108,65.509 -70.669,114.871 -2.052,11.835 -15.164,66.45201 -12.064,95.621 -4.636,-27.54499 4.097,-43.52699 -5.732,-55.91199 -8.509,-10.722 -31.189,-18.44501 -49.813,-16.98701 -16.075,1.259 -41.12,10.95801 -50.454,39.89901 -3.50001,10.851 -3.61601,39.74399 4,59.99999 -9.39101,-30.737 -45.00001,-56.99999 -68.00005,-53.99999 -27.614,3.602 -49.031,11.74999 -51,45.99999 -0.878,15.277 14.034,48.847 20,63 -12.885,-14.541 -48.451,-22.402 -64,-16 -17,7 -23.787,28.084 -27,57 -2,17.99998 2.312,70.70898 13,102.99998 6.371,19.245 23.041,53.521 38,80 9.595,16.984 22.117,32.599 37,45 20.629,17.19 41.90504,25.447 67.30004,27.63 30.60501,2.633 61.66401,2.855 92.20701,-1.498 40.453,-5.766 77.122,-19.684 111.247,-44.924 38.259,-28.298 69.9,-88.91 91.421,-125.804 23.312,-39.966 26.38,-64.939 23.382,-93.64598 -1.976,-18.916 -13.854,-43.91 -26.671,-49.886 -13.89,-6.478 -32.76,-12.787 -46.992,-6.309"
     transform="matrix(1.2,0,0,1.2,-762.47811,-307.63135)"
     id="path1402-2"
     style="opacity:0.15;fill:#111111;fill-opacity:1;stroke:none;filter:url(#filter3793)" /><path
     d="m 635.29628,464.22609 c 13.42,-21.415 30.825,-89.003 37.103,-113.409 13.976,-54.333 36.708,-138.25601 13.849,-193.05601 -7.564,-18.136 -28.484,-32.794 -48.536,-28.094 -59.461,13.938 -62.108,65.509 -70.669,114.871 -2.052,11.835 -15.164,66.45201 -12.064,95.62101 -4.636,-27.545 4.097,-43.527 -5.732,-55.912 -8.509,-10.722 -31.189,-18.44501 -49.813,-16.98701 -16.075,1.259 -41.12,10.95801 -50.454,39.89901 -3.5,10.851 -3.616,39.744 4,60 -9.391,-30.737 -45,-57 -68,-54 -27.614,3.602 -49.031,11.75 -51,46 -0.878,15.277 14.034,48.847 20,63 -12.885,-14.541 -48.451,-22.402 -64,-16 -17,7 -23.787,28.084 -27,57 -2,18 2.312,70.709 13,103 6.371,19.245 23.041,53.521 38,80 9.595,16.984 22.117,32.599 37,45 20.629,17.19 41.905,25.447 67.3,27.63 30.605,2.633 61.664,2.855 92.207,-1.498 40.453,-5.766 77.122,-19.684 111.247,-44.924 38.259,-28.298 69.9,-88.91 91.421,-125.804 23.312,-39.966 26.38,-64.939 23.382,-93.646 -1.976,-18.916 -13.854,-43.91 -26.671,-49.886 -13.89,-6.478 -32.76,-12.787 -46.992,-6.309"
     id="path1402"
     style="opacity:0.75;fill:url(#linearGradient1313);fill-opacity:1;stroke:#000000;stroke-width:20;stroke-linecap:round;stroke-linejoin:round" /><path
     d="m 438.86021,507.79571 c 0,43.01075 17.68817,94.37634 17.68817,94.37634"
     id="path1391"
     style="opacity:0.75;fill:none;stroke:#000000;stroke-width:20;stroke-linecap:round;stroke-linejoin:round" /><path
     d="m 362.23655,553.17205 c 1.34409,30.91398 29,66 29,66"
     id="path1393"
     style="opacity:0.75;fill:none;stroke:#000000;stroke-width:20;stroke-linecap:round;stroke-linejoin:round" /><path
     d="m 527.23655,507.17205 c -8.06452,30.91398 3,84 3,84"
     id="path1395"
     style="opacity:0.75;fill:none;stroke:#000000;stroke-width:20;stroke-linecap:round;stroke-linejoin:round" /></svg>

<?xml version="1.0" encoding="UTF-8" standalone="no"?>
<!-- Created with Inkscape (http://www.inkscape.org/) -->
<svg
   xmlns:svg="http://www.w3.org/2000/svg"
   xmlns="http://www.w3.org/2000/svg"
   xmlns:xlink="http://www.w3.org/1999/xlink"
   version="1.0"
   width="500"
   height="500"
   viewBox="0 0 1000 1000"
   id="page"
   xml:space="preserve"><defs
     id="defs38"><linearGradient
       id="linearGradient1307"><stop
         id="stop1309"
         style="stop-color:#999999;stop-opacity:1"
         offset="0" /><stop
         id="stop1311"
         style="stop-color:#555555;stop-opacity:1"
         offset="1" /></linearGradient><linearGradient
       x1="252.50525"
       y1="118.78046"
       x2="252.50525"
       y2="730.68188"
       id="linearGradient1313"
       xlink:href="#linearGradient1307"
       gradientUnits="userSpaceOnUse"
       gradientTransform="translate(-6.708428e-6,0)" /></defs><path
     d="M 635.29628,464.22609 C 648.71628,442.81109 666.12128,375.22309 672.39928,350.81709 C 686.37528,296.48409 709.10728,212.56108 686.24828,157.76108 C 678.68428,139.62508 657.76428,124.96708 637.71228,129.66708 C 578.25128,143.60508 575.60428,195.17608 567.04328,244.53808 C 564.99128,256.37308 551.87928,310.99009 554.97928,340.15909 C 550.34328,312.61409 559.07628,296.63209 549.24728,284.24709 C 540.73828,273.52509 518.05828,265.80208 499.43428,267.26008 C 483.35928,268.51908 458.31428,278.21809 448.98028,307.15909 C 445.48028,318.01009 445.36428,346.90309 452.98028,367.15909 C 443.58928,336.42209 407.98028,310.15909 384.98028,313.15909 C 357.36628,316.76109 335.94928,324.90909 333.98028,359.15909 C 333.10228,374.43609 348.01428,408.00609 353.98028,422.15909 C 341.09528,407.61809 305.52928,399.75709 289.98028,406.15909 C 272.98028,413.15909 266.19328,434.24309 262.98028,463.15909 C 260.98028,481.15909 265.29228,533.86809 275.98028,566.15909 C 282.35128,585.40409 299.02128,619.68009 313.98028,646.15909 C 323.57528,663.14309 336.09728,678.75809 350.98028,691.15909 C 371.60928,708.34909 392.88528,716.60609 418.28028,718.78909 C 448.88528,721.42209 479.94428,721.64409 510.48728,717.29109 C 550.94028,711.52509 587.60928,697.60709 621.73428,672.36709 C 659.99328,644.06909 691.63428,583.45709 713.15528,546.56309 C 736.46728,506.59709 739.53528,481.62409 736.53728,452.91709 C 734.56128,434.00109 722.68328,409.00709 709.86628,403.03109 C 695.97628,396.55309 677.10628,390.24409 662.87428,396.72209"
     id="path1402"
     style="opacity:1;fill:url(#linearGradient1313);fill-opacity:1;stroke:#000000;stroke-width:20;stroke-linecap:round;stroke-linejoin:round" /><path
     d="M 438.86021,507.79571 C 438.86021,550.80646 456.54838,602.17205 456.54838,602.17205"
     id="path1391"
     style="opacity:1;fill:none;stroke:#000000;stroke-width:20;stroke-linecap:round;stroke-linejoin:round" /><path
     d="M 362.23655,553.17205 C 363.58064,584.08603 391.23655,619.17205 391.23655,619.17205"
     id="path1393"
     style="opacity:1;fill:none;stroke:#000000;stroke-width:20;stroke-linecap:round;stroke-linejoin:round" /><path
     d="M 527.23655,507.17205 C 519.17203,538.08603 530.23655,591.17205 530.23655,591.17205"
     id="path1395"
     style="opacity:1;fill:none;stroke:#000000;stroke-width:20;stroke-linecap:round;stroke-linejoin:round" /></svg>
